src/Flags/USA.svg

<svg xmlns="http://www.w3.org/2000/svg" viewBox="0 0 16 16"><path fill="#B22234" d="M8 16c2 0 3.9-.8 5.3-2H2.7C4.1 15.2 6 16 8 16zm5.3-14H9v2h5.9c-.4-.8-1-1.4-1.6-2zM9 12h5.9c.4-.6.6-1.3.8-2H9v2zm6.7-6H9v2h7c0-.7-.1-1.4-.3-2z"/><path fill="#3C3B6E" d="M8 0c-.9 0-1.8.2-2.6.4l.2.7L5 .7l-.6.5.1-.4c-.5.3-.9.5-1.4.9l.1.3H4l-.6.4.2.7-.6-.4-.6.5.2-.7-.2-.2c-.5.5-.9 1-1.2 1.5V4H2l-.6.4.2.7-.6-.4-.4.3c-.2.3-.3.7-.3 1-.2.6-.3 1.3-.3 2h.8l.2-.7.2.7H2l-.6.4.2.7-.6-.4-.6.5.2-.7L0 8c0 .7.1 1.4.3 2 .2.7.5 1.4.8 2H9V.1C8.7 0 8.3 0 8 0zM2.8 6l.2-.7.2.7H4l-.6.4.2.7-.6-.4-.6.5.2-.7L2 6h.8zm.8 5.2l-.6-.5-.6.4.2-.7L2 10h.8l.2-.7.2.7H4l-.6.4.2.8zm4 0l-.6-.5-.6.4.2-.7L6 10h.8l.2-.7.2.7H8l-.6.4.2.8zM5.4 8.4l.2.7-.6-.4-.6.5.2-.7L4 8h.8l.2-.7.2.7H6l-.6.4zm2.2-1.2L7 6.7l-.6.5.2-.7L6 6h.8l.2-.7.2.7H8l-.6.4.2.8zM5.4 4.4l.2.7-.6-.4-.6.5.2-.7L4 4h.8l.2-.7.2.7H6l-.6.4zm2.2-1.2L7 2.7l-.6.5.2-.7L6 2h.8l.2-.7.2.7H8l-.6.4.2.8z"/><path fill="#3C3B6E" d="M2.8 1.9c0 .1-.1.1 0 0z"/><path fill="#F0F0F0" d="M1.1 12c.4.8 1 1.4 1.6 2h10.6c.6-.6 1.2-1.2 1.6-2H1.1zM9 .1V2h4.3C12.1 1 10.6.3 9 .1zM14.9 4H9v2h6.7c-.1-.7-.4-1.4-.8-2zM9 8v2h6.7c.2-.6.3-1.3.3-2H9zm-1.8 2L7 9.3l-.2.7H6l.6.4-.2.8.6-.5.6.5-.2-.8.6-.4zm-2-2L5 7.3l-.2.7H4l.6.4-.2.8.6-.5.6.5-.2-.8L6 8zm2-2L7 5.3l-.2.7H6l.6.4-.2.8.6-.5.6.5-.2-.8L8 6zm-.8-2.8l.6-.5.6.5-.2-.8L8 2h-.8L7 1.3l-.2.7H6l.6.4zM5 3.3l-.2.7H4l.6.4-.2.8.6-.5.6.5-.2-.8L6 4h-.8zM3.2 10L3 9.3l-.2.7H2l.6.4-.2.8.6-.5.6.5-.2-.8.6-.4zm0-4L3 5.3l-.2.7H2l.6.4-.2.8.6-.5.6.5-.2-.8L4 6zM3 2.7l.6.4-.2-.7L4 2h-.8l-.1-.3c-.1.1-.2.1-.3.2V2c-.2.1-.3.2-.4.3l.2.2-.2.7.6-.5zM1.4 8.4L2 8h-.8L1 7.3.8 8H0l.6.4-.2.8.6-.5.6.5zm.2-3.2l-.2-.8L2 4h-.8v-.2c0 .1-.1.1-.1.2-.2.3-.4.7-.5 1l.4-.3.6.5zm4-4L5.4.4c-.3.2-.6.3-.9.4l-.1.4.6-.5.6.5z"/></svg>

<?xml version="1.0" encoding="utf-8"?>
<!-- Generator: Adobe Illustrator 21.0.2, SVG Export Plug-In . SVG Version: 6.00 Build 0)  -->
<svg version="1.1" id="icon" xmlns="http://www.w3.org/2000/svg" xmlns:xlink="http://www.w3.org/1999/xlink" x="0px" y="0px"
	 viewBox="0 0 16 16" enable-background="new 0 0 16 16" xml:space="preserve">
<g>
	<path fill="#B22234" d="M8,16c2,0,3.9-0.8,5.3-2H2.7C4.1,15.2,6,16,8,16z"/>
	<path fill="#B22234" d="M13.3,2H9v2h5.9C14.5,3.2,13.9,2.6,13.3,2z"/>
	<path fill="#B22234" d="M9,12h5.9c0.4-0.6,0.6-1.3,0.8-2H9V12z"/>
	<path fill="#B22234" d="M15.7,6H9v2h7C16,7.3,15.9,6.6,15.7,6z"/>
	<path fill="#3C3B6E" d="M8,0C7.1,0,6.2,0.2,5.4,0.4l0,0l0.2,0.7L5,0.7L4.4,1.2l0.1-0.4C4,1.1,3.6,1.3,3.1,1.7L3.2,2H4L3.4,2.4
		l0.2,0.7L3,2.7L2.4,3.2l0.2-0.7L2.4,2.3c-0.5,0.5-0.9,1-1.2,1.5L1.2,4H2L1.4,4.4l0.2,0.7L1,4.7L0.6,5C0.4,5.3,0.3,5.7,0.3,6
		C0.1,6.6,0,7.3,0,8h0.8L1,7.3L1.2,8H2L1.4,8.4l0.2,0.7L1,8.7L0.4,9.2l0.2-0.7L0,8c0,0.7,0.1,1.4,0.3,2c0.2,0.7,0.5,1.4,0.8,2H9v-2
		V8V6V4V2V0.1C8.7,0,8.3,0,8,0z M2.8,6L3,5.3L3.2,6H4L3.4,6.4l0.2,0.7L3,6.7L2.4,7.2l0.2-0.7L2,6H2.8z M3.6,11.2L3,10.7l-0.6,0.4
		l0.2-0.7L2,10h0.8L3,9.3L3.2,10H4l-0.6,0.4L3.6,11.2z M7.6,11.2L7,10.7l-0.6,0.4l0.2-0.7L6,10h0.8L7,9.3L7.2,10H8l-0.6,0.4
		L7.6,11.2z M5.4,8.4l0.2,0.7L5,8.7L4.4,9.2l0.2-0.7L4,8h0.8L5,7.3L5.2,8H6L5.4,8.4z M7.6,7.2L7,6.7L6.4,7.2l0.2-0.7L6,6h0.8L7,5.3
		L7.2,6H8L7.4,6.4L7.6,7.2z M5.4,4.4l0.2,0.7L5,4.7L4.4,5.2l0.2-0.7L4,4h0.8L5,3.3L5.2,4H6L5.4,4.4z M7.6,3.2L7,2.7L6.4,3.2l0.2-0.7
		L6,2h0.8L7,1.3L7.2,2H8L7.4,2.4L7.6,3.2z"/>
	<path fill="#3C3B6E" d="M2.8,1.9C2.8,2,2.7,2,2.8,1.9L2.8,1.9L2.8,1.9z"/>
	<path fill="#F0F0F0" d="M1.1,12c0.4,0.8,1,1.4,1.6,2h10.6c0.6-0.6,1.2-1.2,1.6-2H9H1.1z"/>
	<path fill="#F0F0F0" d="M9,0.1V2h4.3C12.1,1,10.6,0.3,9,0.1z"/>
	<path fill="#F0F0F0" d="M14.9,4H9v2h6.7C15.6,5.3,15.3,4.6,14.9,4z"/>
	<path fill="#F0F0F0" d="M9,8v2h6.7C15.9,9.4,16,8.7,16,8H9z"/>
	<polygon fill="#F0F0F0" points="7.2,10 7,9.3 6.8,10 6,10 6.6,10.4 6.4,11.2 7,10.7 7.6,11.2 7.4,10.4 8,10 	"/>
	<polygon fill="#F0F0F0" points="5.2,8 5,7.3 4.8,8 4,8 4.6,8.4 4.4,9.2 5,8.7 5.6,9.2 5.4,8.4 6,8 	"/>
	<polygon fill="#F0F0F0" points="7.2,6 7,5.3 6.8,6 6,6 6.6,6.4 6.4,7.2 7,6.7 7.6,7.2 7.4,6.4 8,6 	"/>
	<polygon fill="#F0F0F0" points="6.4,3.2 7,2.7 7.6,3.2 7.4,2.4 8,2 7.2,2 7,1.3 6.8,2 6,2 6.6,2.4 	"/>
	<polygon fill="#F0F0F0" points="5,3.3 4.8,4 4,4 4.6,4.4 4.4,5.2 5,4.7 5.6,5.2 5.4,4.4 6,4 5.2,4 	"/>
	<polygon fill="#F0F0F0" points="3.2,10 3,9.3 2.8,10 2,10 2.6,10.4 2.4,11.2 3,10.7 3.6,11.2 3.4,10.4 4,10 	"/>
	<polygon fill="#F0F0F0" points="3.2,6 3,5.3 2.8,6 2,6 2.6,6.4 2.4,7.2 3,6.7 3.6,7.2 3.4,6.4 4,6 	"/>
	<path fill="#F0F0F0" d="M3,2.7l0.6,0.4L3.4,2.4L4,2H3.2L3.1,1.7C3,1.8,2.9,1.8,2.8,1.9l0,0.1h0C2.6,2.1,2.5,2.2,2.4,2.3l0.2,0.2
		L2.4,3.2L3,2.7z"/>
	<polygon fill="#F0F0F0" points="1.4,8.4 2,8 1.2,8 1,7.3 0.8,8 0,8 0.6,8.4 0.4,9.2 1,8.7 1.6,9.2 	"/>
	<path fill="#F0F0F0" d="M1.6,5.2L1.4,4.4L2,4H1.2L1.2,3.8c0,0.1-0.1,0.1-0.1,0.2C0.9,4.3,0.7,4.7,0.6,5L1,4.7L1.6,5.2z"/>
	<path fill="#F0F0F0" d="M5.6,1.2L5.4,0.4l0,0C5.1,0.6,4.8,0.7,4.5,0.8L4.4,1.2L5,0.7L5.6,1.2z"/>
</g>
</svg>
